svg/OSM-icons/craft #ff8000 °ffffff !label=encrafts,deHerstellung, Produktion/16061;craft=photographic_laboratory;[addr];[contact];!label=enphotographic laboratory,dePhoto- labor.svg

<svg xmlns="http://www.w3.org/2000/svg" viewBox="0 0 580 580" enable-background="new 0 0 580 580"><path fill="#111" stroke="#eee" stroke-width="3.408" d="m66.28 1.768c-41.34 0-64.57 21.371-64.57 65.04v450.12c0 40.844 20.895 62.23 62.19 62.23h452.02c41.31 0 62.23-20.315 62.23-62.23v-450.12c0-42.602-20.923-65.04-63.52-65.04-.003 0-448.5-.143-448.35 0z"/><path fill="#fff" d="m224.58 62.26l-28.818 117.49h-153.08v338h322v-73.1l92.11 22.592 80.52-328.27-312.73-76.71m-145.39 360.49v-215h109.71 37.582 101.71v130.13 84.87h-52.77-196.23m364.79-56.47l-79.29-19.448v-167.08h-131.34l20.01-81.6 241.83 59.32-51.22 208.81"/></svg>

<?xml version="1.0" encoding="utf-8"?>
<!-- Generator: Adobe Illustrator 15.0.0, SVG Export Plug-In . SVG Version: 6.00 Build 0)  -->
<!DOCTYPE svg PUBLIC "-//W3C//DTD SVG 1.1//EN" "http://www.w3.org/Graphics/SVG/1.1/DTD/svg11.dtd">
<svg version="1.1" xmlns="http://www.w3.org/2000/svg" xmlns:xlink="http://www.w3.org/1999/xlink" x="0px" y="0px" width="580px"
	 height="580px" viewBox="0 0 580 580" enable-background="new 0 0 580 580" xml:space="preserve">
<g id="Layer_2_1_">
	<g id="Layer_2">
		<g id="g1327">
			<path id="path1329" fill="#111111" stroke="#EEEEEE" stroke-width="3.408" d="M66.275,1.768
				c-41.335,0-64.571,21.371-64.571,65.036v450.123c0,40.844,20.895,62.229,62.192,62.229h452.024
				c41.307,0,62.229-20.315,62.229-62.229V66.804c0-42.602-20.923-65.036-63.521-65.036C514.625,1.768,66.133,1.625,66.275,1.768z"
				/>
		</g>
	</g>
</g>
<g id="Layer_1">
	<path fill="#FFFFFF" d="M224.582,62.256l-28.818,117.488H42.688v338h322V444.64l92.105,22.592l80.52-328.27L224.582,62.256z
		 M79.188,422.744v-215h109.709h37.582h101.709v130.128v84.872h-52.77H79.188z M443.974,366.272l-79.287-19.448v-167.08H233.346
		l20.015-81.599l241.832,59.317L443.974,366.272z"/>
</g>
</svg>
